X: 27301
T: Missing Fiddle, The
R: reel
M: 4/4
K: Dmajor
|:F3 D E3 F|DF F2 ABde|fded Bcde|fede fe e2|
F3 D E3 F|DF F2 ABde|fded Bcde|faeg fd d2:|
|:faaf g2 ag|fged cdeg|f2 ed cdeg|fede fe e2|
faaf g2 ag|fged cdeg|f2 ed cdeg|faeg fd d2:|

